packages/icons/plugins/Transak.svg

<svg width="28" height="28" viewBox="0 0 28 28" xmlns="http://www.w3.org/2000/svg">
<g>
        <path
            opacity="0.6"
            d="M7.3634 22.3193C6.39691 22.3193 5.6134 21.5358 5.6134 20.5693L5.6134 10.8521C5.6134 9.88564 6.39691 9.10214 7.36341 9.10214L23.9337 9.10214C24.9002 9.10214 25.6837 9.88564 25.6837 10.8521L25.6837 20.5693C25.6837 21.5358 24.9002 22.3193 23.9337 22.3193L7.3634 22.3193Z"
            fill="url(#paint0_linear_1060_927)"
        />
        <g filter="url(#filter0_b_1060_927)">
            <path
                d="M20.6366 5.68066C21.6031 5.68066 22.3866 6.46417 22.3866 7.43066L22.3866 17.1479C22.3866 18.1144 21.6031 18.8979 20.6366 18.8979L4.06628 18.8979C3.09979 18.8979 2.31628 18.1144 2.31628 17.1479L2.31628 7.43066C2.31628 6.46416 3.09979 5.68066 4.06628 5.68066L20.6366 5.68066Z"
                fill="url(#paint1_linear_1060_927)"
                fill-opacity="0.9"
            />
        </g>
        <path opacity="0.3" d="M2.31628 8.13251H22.3866V10.7864H2.31628V8.13251Z" fill="white" />
        <ellipse opacity="0.8" cx="18.4249" cy="16.095" rx="1.2998" ry="1.2998" fill="#FF601C" />
        <ellipse opacity="0.8" cx="19.7237" cy="16.095" rx="1.2998" ry="1.2998" fill="#FFD977" />
        <defs>
            <filter
                id="filter0_b_1060_927"
                x="-0.683716"
                y="2.68066"
                width="26.0703"
                height="19.2172"
                filter-units="userSpaceOnUse"
                color-interpolation-filters="sRGB">
                <feFlood flood-opacity="0" result="BackgroundImageFix" />
                <feGaussianBlur in="BackgroundImage" std-deviation="1.5" />
                <feComposite in2="SourceAlpha" operator="in" result="effect1_backgroundBlur_1060_927" />
                <feBlend mode="normal" in="SourceGraphic" in2="effect1_backgroundBlur_1060_927" result="shape" />
            </filter>
            <linearGradient
                id="paint0_linear_1060_927"
                x1="6.7459"
                y1="22.3193"
                x2="25.6837"
                y2="10.0639"
                gradient-units="userSpaceOnUse">
                <stop stop-color="#85C1FF" />
                <stop offset="1" stop-color="#2353FF" />
            </linearGradient>
            <linearGradient
                id="paint1_linear_1060_927"
                x1="22.3866"
                y1="6.56093"
                x2="2.31628"
                y2="18.8968"
                gradient-units="userSpaceOnUse">
                <stop stop-color="#C9A8FF" />
                <stop offset="0.465773" stop-color="#5C70FF" />
                <stop offset="1" stop-color="#0B53FF" />
            </linearGradient>
        </defs>
    </g>
</svg>

<svg xmlns="http://www.w3.org/2000/svg" width="28" height="28">
    <path fill="url(#Transak_svg__a)" d="M7.363 22.32a1.75 1.75 0 0 1-1.75-1.75v-9.718c0-.966.784-1.75 1.75-1.75h16.57c.967 0 1.75.784 1.75 1.75v9.717a1.75 1.75 0 0 1-1.75 1.75H7.364Z" opacity=".6"/>
    <g filter="url(#Transak_svg__b)">
        <path fill="url(#Transak_svg__c)" fill-opacity=".9" d="M20.637 5.68c.966 0 1.75.784 1.75 1.75v9.718a1.75 1.75 0 0 1-1.75 1.75H4.067a1.75 1.75 0 0 1-1.75-1.75V7.43c0-.967.783-1.75 1.75-1.75h16.57Z"/>
    </g>
    <path fill="#fff" d="M2.316 8.133h20.07v2.653H2.317V8.133Z" opacity=".3"/>
    <circle cx="18.425" cy="16.095" r="1.3" fill="#FF601C" opacity=".8"/>
    <circle cx="19.724" cy="16.095" r="1.3" fill="#FFD977" opacity=".8"/>
    <defs>
        <linearGradient id="Transak_svg__a" x1="6.746" x2="25.684" y1="22.319" y2="10.064">
            <stop stop-color="#85C1FF"/>
            <stop offset="1" stop-color="#2353FF"/>
        </linearGradient>
        <linearGradient id="Transak_svg__c" x1="22.387" x2="2.316" y1="6.561" y2="18.897">
            <stop stop-color="#C9A8FF"/>
            <stop offset=".466" stop-color="#5C70FF"/>
            <stop offset="1" stop-color="#0B53FF"/>
        </linearGradient>
        <filter id="Transak_svg__b" width="26.07" height="19.217" x="-.684" y="2.681" color-interpolation-filters="sRGB">
            <feFlood flood-opacity="0" result="BackgroundImageFix"/>
            <feGaussianBlur in="BackgroundImage"/>
            <feComposite in2="SourceAlpha" operator="in" result="effect1_backgroundBlur_1060_927"/>
            <feBlend in="SourceGraphic" in2="effect1_backgroundBlur_1060_927" result="shape"/>
        </filter>
    </defs>
</svg>
